addons/godot-flexbox/assets/dark/DisplayFlexRow.svg

<svg xmlns="http://www.w3.org/2000/svg" xmlns:xlink="http://www.w3.org/1999/xlink" width="16" height="16" viewBox="0 0 16 16" fill="none"><g opacity="1"  transform="translate(0 0)  rotate(0)"><mask id="bg-mask-0" fill="white"><use transform="translate(0 0)  rotate(0)" xlink:href="#path_0"></use></mask><g mask="url(#bg-mask-0)" ><path id="路径 1" fill-rule="evenodd" style="fill:#919191" opacity="0.6" d="M2,14h12v-12h-12zM1,1h14v14h-14z"></path><path id="路径 2" fill-rule="evenodd" style="fill:#d6d6d6" opacity="1" d="M12,7h-8v-3h8zM12,9v3h-8v-3z"></path></g></g><defs><rect id="path_0" x="0" y="0" width="16" height="16" /></defs></svg>

<svg xmlns="http://www.w3.org/2000/svg" xmlns:xlink="http://www.w3.org/1999/xlink" width="16" height="16" fill="none"><g><mask id="b" fill="#fff"><use xlink:href="#a"/></mask><g fill-rule="evenodd" mask="url(#b)"><path d="M2 14h12V2H2zM1 1h14v14H1z" opacity=".6" style="fill:#919191"/><path d="M12 7H4V4h8zm0 2v3H4V9z" style="fill:#d6d6d6"/></g></g><defs><path id="a" d="M0 0h16v16H0z"/></defs></svg>
